world_stage/static/flags/rect/grd.svg

<svg height="480" viewBox="0 0 715.73334 480" width="715.73334" xmlns="http://www.w3.org/2000/svg" xmlns:xlink="http://www.w3.org/1999/xlink"><clipPath id="a"><path d="m0 360h536.8v-360h-536.8z" transform="translate(-270.3382 -223.20021)"/></clipPath><clipPath id="b"><path d="m0 360h536.8v-360h-536.8z" transform="translate(-285.01101 -174.52251)"/></clipPath><clipPath id="c"><path d="m0 360h536.8v-360h-536.8z" transform="translate(-155.8792 -341.22751)"/></clipPath><clipPath id="d"><path d="m0 360h536.8v-360h-536.8z" transform="translate(-275.8792 -341.22751)"/></clipPath><clipPath id="e"><path d="m0 360h536.8v-360h-536.8z" transform="translate(-399.12631 -331.23441)"/></clipPath><clipPath id="f"><path d="m0 360h536.8v-360h-536.8z" transform="translate(-99.582805 -187.59621)"/></clipPath><clipPath id="g"><path d="m0 360h536.8v-360h-536.8z" transform="translate(-73.760002 -213.24021)"/></clipPath><clipPath id="h"><path d="m0 360h536.8v-360h-536.8z" transform="translate(-155.8792 -31.227503)"/></clipPath><clipPath id="i"><path d="m0 360h536.8v-360h-536.8z" transform="translate(-275.8792 -31.227503)"/></clipPath><clipPath id="j"><path d="m0 360h536.8v-360h-536.8z" transform="translate(-399.12631 -21.234398)"/></clipPath><path d="m0 0h536.8v360h-536.8z" fill="#ce1126" transform="matrix(1.3333333 0 0 -1.3333333 0 480)"/><path d="m45.091 309.6h446.618v-259.2h-446.618z" fill="#007a5e" transform="matrix(1.3333333 0 0 -1.3333333 0 480)"/><path d="m0 0h446.618l-446.618-259.2h446.618z" fill="#fcd116" transform="matrix(1.3333333 0 0 -1.3333333 60.121467 67.199867)"/><path clip-path="url(#a)" d="m0 0c23.858 0 43.2-19.341 43.2-43.2s-19.342-43.2-43.2-43.2c-23.859 0-43.2 19.341-43.2 43.2s19.341 43.2 43.2 43.2" fill="#ce1126" transform="matrix(1.3333333 0 0 -1.3333333 360.45093 182.39973)"/><g fill="#fcd116"><path clip-path="url(#b)" d="m0 0 23.276 16.911h-28.77l-8.891 27.363-8.891-27.363h-28.771l23.276-16.911-8.891-27.363 23.277 16.911 23.276-16.911z" transform="matrix(1.3333333 0 0 -1.3333333 380.01467 247.30333)"/><path clip-path="url(#c)" d="m0 0-5.253 16.169-5.254-16.169h-17.001l13.754-9.993-5.254-16.169 13.755 9.993 13.753-9.993-5.253 16.169 13.754 9.993z" transform="matrix(1.3333333 0 0 -1.3333333 207.83893 25.03)"/><path clip-path="url(#d)" d="m0 0-5.253 16.169-5.254-16.169h-17.001l13.754-9.993-5.254-16.169 13.755 9.993 13.754-9.993-5.254 16.169 13.754 9.993z" transform="matrix(1.3333333 0 0 -1.3333333 367.83893 25.03)"/><path clip-path="url(#e)" d="m0 0 13.754 9.993h-17.001l-5.254 16.169-5.253-16.169h-17.001l13.754-9.993-5.254-16.169 13.754 9.993 13.755-9.993z" transform="matrix(1.3333333 0 0 -1.3333333 532.1684 38.354133)"/></g><path clip-path="url(#f)" d="m0 0-16.658-8.892c5.405-10.067 15.918-21.024 25.099-24.876.147 10.225-3.48 23.328-8.441 33.768" fill="#ce1126" transform="matrix(1.3333333 0 0 -1.3333333 132.77707 229.87173)"/><g fill="#fcd116"><path clip-path="url(#g)" d="m0 0c7.835-16.332-20.319-55.296 26.587-64.428-5.786 7.896-9.517 20.928-8.106 31.392 9.841-3.744 20.196-14.7 24.381-23.076 12.276 44.58-31.488 41.868-42.862 56.112" transform="matrix(1.3333333 0 0 -1.3333333 98.346667 195.67973)"/><path clip-path="url(#h)" d="m0 0-5.253 16.169-5.254-16.169h-17.001l13.754-9.993-5.254-16.169 13.755 9.993 13.753-9.993-5.253 16.169 13.754 9.993z" transform="matrix(1.3333333 0 0 -1.3333333 207.83893 438.36333)"/><path clip-path="url(#i)" d="m0 0-5.253 16.169-5.254-16.169h-17.001l13.754-9.993-5.254-16.169 13.755 9.993 13.754-9.993-5.254 16.169 13.754 9.993z" transform="matrix(1.3333333 0 0 -1.3333333 367.83893 438.36333)"/><path clip-path="url(#j)" d="m0 0 13.754 9.993h-17.001l-5.254 16.169-5.253-16.169h-17.001l13.754-9.993-5.254-16.169 13.754 9.993 13.755-9.993z" transform="matrix(1.3333333 0 0 -1.3333333 532.1684 451.68747)"/></g></svg>

<?xml version="1.0" encoding="UTF-8" standalone="no"?>
<!-- Created with Inkscape (http://www.inkscape.org/) -->

<svg
   version="1.1"
   id="svg1"
   width="715.73334"
   height="480"
   viewBox="0 0 715.73334 480"
   sodipodi:docname="gd.ai"
   xmlns:inkscape="http://www.inkscape.org/namespaces/inkscape"
   xmlns:sodipodi="http://sodipodi.sourceforge.net/DTD/sodipodi-0.dtd"
   xmlns="http://www.w3.org/2000/svg"
   xmlns:svg="http://www.w3.org/2000/svg">
  <defs
     id="defs1">
    <clipPath
       clipPathUnits="userSpaceOnUse"
       id="clipPath5">
      <path
         d="M 0,360 H 536.8 V 0 H 0 Z"
         transform="translate(-270.3382,-223.20021)"
         id="path5" />
    </clipPath>
    <clipPath
       clipPathUnits="userSpaceOnUse"
       id="clipPath7">
      <path
         d="M 0,360 H 536.8 V 0 H 0 Z"
         transform="translate(-285.01101,-174.52251)"
         id="path7" />
    </clipPath>
    <clipPath
       clipPathUnits="userSpaceOnUse"
       id="clipPath9">
      <path
         d="M 0,360 H 536.8 V 0 H 0 Z"
         transform="translate(-155.8792,-341.22751)"
         id="path9" />
    </clipPath>
    <clipPath
       clipPathUnits="userSpaceOnUse"
       id="clipPath11">
      <path
         d="M 0,360 H 536.8 V 0 H 0 Z"
         transform="translate(-275.8792,-341.22751)"
         id="path11" />
    </clipPath>
    <clipPath
       clipPathUnits="userSpaceOnUse"
       id="clipPath13">
      <path
         d="M 0,360 H 536.8 V 0 H 0 Z"
         transform="translate(-399.12631,-331.23441)"
         id="path13" />
    </clipPath>
    <clipPath
       clipPathUnits="userSpaceOnUse"
       id="clipPath15">
      <path
         d="M 0,360 H 536.8 V 0 H 0 Z"
         transform="translate(-99.582805,-187.59621)"
         id="path15" />
    </clipPath>
    <clipPath
       clipPathUnits="userSpaceOnUse"
       id="clipPath17">
      <path
         d="M 0,360 H 536.8 V 0 H 0 Z"
         transform="translate(-73.760002,-213.24021)"
         id="path17" />
    </clipPath>
    <clipPath
       clipPathUnits="userSpaceOnUse"
       id="clipPath19">
      <path
         d="M 0,360 H 536.8 V 0 H 0 Z"
         transform="translate(-155.8792,-31.227503)"
         id="path19" />
    </clipPath>
    <clipPath
       clipPathUnits="userSpaceOnUse"
       id="clipPath21">
      <path
         d="M 0,360 H 536.8 V 0 H 0 Z"
         transform="translate(-275.8792,-31.227503)"
         id="path21" />
    </clipPath>
    <clipPath
       clipPathUnits="userSpaceOnUse"
       id="clipPath23">
      <path
         d="M 0,360 H 536.8 V 0 H 0 Z"
         transform="translate(-399.12631,-21.234398)"
         id="path23" />
    </clipPath>
  </defs>
  <sodipodi:namedview
     id="namedview1"
     pagecolor="#ffffff"
     bordercolor="#000000"
     borderopacity="0.25"
     inkscape:showpageshadow="2"
     inkscape:pageopacity="0.0"
     inkscape:pagecheckerboard="0"
     inkscape:deskcolor="#d1d1d1">
    <inkscape:page
       x="0"
       y="0"
       inkscape:label="1"
       id="page1"
       width="715.73334"
       height="480"
       margin="0"
       bleed="0" />
  </sodipodi:namedview>
  <g
     id="layer-MC0"
     inkscape:groupmode="layer"
     inkscape:label="Layer 1">
    <path
       id="path1"
       d="M 0,0 H 536.8 V 360 H 0 Z"
       style="fill:#ce1126;fill-opacity:1;fill-rule:nonzero;stroke:none"
       transform="matrix(1.3333333,0,0,-1.3333333,0,480)" />
    <path
       id="path2"
       d="M 45.091,309.6 H 491.709 V 50.4 H 45.091 Z"
       style="fill:#007a5e;fill-opacity:1;fill-rule:nonzero;stroke:none"
       transform="matrix(1.3333333,0,0,-1.3333333,0,480)" />
    <path
       id="path3"
       d="M 0,0 H 446.618 L 0,-259.2 h 446.618 z"
       style="fill:#fcd116;fill-opacity:1;fill-rule:nonzero;stroke:none"
       transform="matrix(1.3333333,0,0,-1.3333333,60.121467,67.199867)" />
    <path
       id="path4"
       d="m 0,0 c 23.858,0 43.2,-19.341 43.2,-43.2 0,-23.859 -19.342,-43.2 -43.2,-43.2 -23.859,0 -43.2,19.341 -43.2,43.2 C -43.2,-19.341 -23.859,0 0,0"
       style="fill:#ce1126;fill-opacity:1;fill-rule:nonzero;stroke:none"
       transform="matrix(1.3333333,0,0,-1.3333333,360.45093,182.39973)"
       clip-path="url(#clipPath5)" />
    <path
       id="path6"
       d="m 0,0 23.276,16.911 h -28.77 l -8.891,27.363 -8.891,-27.363 H -52.047 L -28.771,0 l -8.891,-27.363 23.277,16.911 23.276,-16.911 z"
       style="fill:#fcd116;fill-opacity:1;fill-rule:nonzero;stroke:none"
       transform="matrix(1.3333333,0,0,-1.3333333,380.01467,247.30333)"
       clip-path="url(#clipPath7)" />
    <path
       id="path8"
       d="M 0,0 -5.253,16.169 -10.507,0 h -17.001 l 13.754,-9.993 -5.254,-16.169 13.755,9.993 L 8.5,-26.162 3.247,-9.993 17.001,0 Z"
       style="fill:#fcd116;fill-opacity:1;fill-rule:nonzero;stroke:none"
       transform="matrix(1.3333333,0,0,-1.3333333,207.83893,25.03)"
       clip-path="url(#clipPath9)" />
    <path
       id="path10"
       d="M 0,0 -5.253,16.169 -10.507,0 h -17.001 l 13.754,-9.993 -5.254,-16.169 13.755,9.993 L 8.501,-26.162 3.247,-9.993 17.001,0 Z"
       style="fill:#fcd116;fill-opacity:1;fill-rule:nonzero;stroke:none"
       transform="matrix(1.3333333,0,0,-1.3333333,367.83893,25.03)"
       clip-path="url(#clipPath11)" />
    <path
       id="path12"
       d="M 0,0 13.754,9.993 H -3.247 L -8.501,26.162 -13.754,9.993 H -30.755 L -17.001,0 l -5.254,-16.169 13.754,9.993 13.755,-9.993 z"
       style="fill:#fcd116;fill-opacity:1;fill-rule:nonzero;stroke:none"
       transform="matrix(1.3333333,0,0,-1.3333333,532.1684,38.354133)"
       clip-path="url(#clipPath13)" />
    <path
       id="path14"
       d="M 0,0 -16.658,-8.892 C -11.253,-18.959 -0.74,-29.916 8.441,-33.768 8.588,-23.543 4.961,-10.44 0,0"
       style="fill:#ce1126;fill-opacity:1;fill-rule:nonzero;stroke:none"
       transform="matrix(1.3333333,0,0,-1.3333333,132.77707,229.87173)"
       clip-path="url(#clipPath15)" />
    <path
       id="path16"
       d="m 0,0 c 7.835,-16.332 -20.319,-55.296 26.587,-64.428 -5.786,7.896 -9.517,20.928 -8.106,31.392 9.841,-3.744 20.196,-14.7 24.381,-23.076 C 55.138,-11.532 11.374,-14.244 0,0"
       style="fill:#fcd116;fill-opacity:1;fill-rule:nonzero;stroke:none"
       transform="matrix(1.3333333,0,0,-1.3333333,98.346667,195.67973)"
       clip-path="url(#clipPath17)" />
    <path
       id="path18"
       d="M 0,0 -5.253,16.169 -10.507,0 h -17.001 l 13.754,-9.993 -5.254,-16.169 13.755,9.993 L 8.5,-26.162 3.247,-9.993 17.001,0 Z"
       style="fill:#fcd116;fill-opacity:1;fill-rule:nonzero;stroke:none"
       transform="matrix(1.3333333,0,0,-1.3333333,207.83893,438.36333)"
       clip-path="url(#clipPath19)" />
    <path
       id="path20"
       d="M 0,0 -5.253,16.169 -10.507,0 h -17.001 l 13.754,-9.993 -5.254,-16.169 13.755,9.993 L 8.501,-26.162 3.247,-9.993 17.001,0 Z"
       style="fill:#fcd116;fill-opacity:1;fill-rule:nonzero;stroke:none"
       transform="matrix(1.3333333,0,0,-1.3333333,367.83893,438.36333)"
       clip-path="url(#clipPath21)" />
    <path
       id="path22"
       d="M 0,0 13.754,9.993 H -3.247 L -8.501,26.162 -13.754,9.993 H -30.755 L -17.001,0 l -5.254,-16.169 13.754,9.993 13.755,-9.993 z"
       style="fill:#fcd116;fill-opacity:1;fill-rule:nonzero;stroke:none"
       transform="matrix(1.3333333,0,0,-1.3333333,532.1684,451.68747)"
       clip-path="url(#clipPath23)" />
  </g>
</svg>
